X: 58
T:Untitled. HA.057
M:C
L:1/8
Q:180
C:Back to original Hand
S:Henry Atkinson's original MS,Hartburn,N'umberland,1694.
O:England
A:Hartburn,Northumberland
H:1/8
Z:vmp.Chris Partington.Jan.2004
K:F
c2|"cr"f3ga2b2|"cr"g3fe2f2|g2f2 edef|efed c2c2|!
f2g2a2b2|g3fe2f2|g2fed2e2|f6||!
A2|"cr"B3c d2ef|gagf e2fg|agfe d2ef|gfed c2A2|!
B3c d2ef|gagf e2fg|a2f2g2e2|f6|]
